X: 18
T:John McAlpine
M:4/4
L:1/8
R:STRATHSPEY
K:A
A/B/|"A"c2 c>B "D"A<F F>A|"A"E>F A>B "E"cB "D"A<F F>A|"
A"E>A e>c "E"B2 A:||!
d|"A"c<e e>f "A"e>f a>f|"A"e<c c>a e<c "E"B2|"A"c<e e>f "A"e>f a>f|"A"e<
c c>A "E"B2 "A"Ad|!
"A"c<e e>f "A"e>f a>f|"A"e<c c>a e<c "E"B2|"A"c<e e>f "A"e>f a>f|"A"e<c
c>A "E"B2 "A"A||
